img/company/ostendort.svg

<svg width="140" height="44" viewBox="0 0 140 44" fill="none" xmlns="http://www.w3.org/2000/svg">
<path d="M34.0139 1.15039C28.789 1.15039 24.5525 5.39086 24.5525 10.6219C24.5525 15.8523 28.789 20.0928 34.0139 20.0928C39.2388 20.0928 43.4753 15.8523 43.4753 10.6219C43.4753 5.39086 39.2388 1.15039 34.0139 1.15039ZM34.0139 16.7279C30.6451 16.7279 27.9144 13.9942 27.9144 10.6219C27.9144 7.24951 30.6451 4.51586 34.0139 4.51586C37.3827 4.51586 40.1134 7.24951 40.1134 10.6219C40.1134 13.9942 37.3827 16.7279 34.0139 16.7279Z" fill="#24242E"/>
<path d="M139.205 23.0673H44.6975V23.7031H139.205V23.0673Z" fill="#24242E"/>
<path d="M44.6772 27.4147H46.0883V32.6152L51.6215 27.4147H53.4805L46.8326 33.6322L53.9974 41.2715H52.1551L46.0883 34.8177V41.2715H44.6772V27.4147Z" fill="#24242E"/>
<path d="M54.7141 31.0222H56.0315V35.8077C56.0315 36.9759 56.0941 37.7796 56.2193 38.2194C56.4088 38.8472 56.7678 39.3433 57.299 39.7072C57.8296 40.0717 58.4625 40.254 59.1981 40.254C59.9327 40.254 60.5563 40.0763 61.0686 39.7216C61.5803 39.3675 61.9335 38.9007 62.1287 38.3223C62.2608 37.9279 62.3269 37.0886 62.3269 35.8077V31.0222H63.6724V36.0526C63.6724 37.4657 63.5076 38.5304 63.178 39.2462C62.8495 39.9619 62.3539 40.5225 61.6911 40.9272C61.0301 41.3331 60.1997 41.5354 59.2027 41.5354C58.2046 41.5354 57.3725 41.3331 56.704 40.9272C56.0361 40.5225 55.5376 39.9573 55.2086 39.2318C54.8789 38.5068 54.7141 37.4151 54.7141 35.9583V31.0222Z" fill="#24242E"/>
<path d="M66.1172 31.0223H67.4346V32.8591C67.9612 32.156 68.5447 31.63 69.185 31.281C69.8248 30.9326 70.5208 30.7584 71.2737 30.7584C72.0387 30.7584 72.7181 30.9533 73.3113 31.3425C73.904 31.7323 74.3416 32.256 74.6235 32.916C74.9061 33.5749 75.0474 34.6016 75.0474 35.9963V41.2716H73.7299V36.3827C73.7299 35.2018 73.6806 34.4136 73.5835 34.0175C73.4307 33.3397 73.1379 32.8298 72.7048 32.4871C72.2718 32.1445 71.7073 31.9743 71.0107 31.9743C70.2142 31.9743 69.4997 32.2382 68.8697 32.7654C68.2386 33.2932 67.8234 33.9457 67.6224 34.7247C67.4972 35.2329 67.4346 36.1631 67.4346 37.5135V41.2716H66.1172V31.0223Z" fill="#24242E"/>
<path d="M83.0168 32.1433L82.1703 33.0194C81.4656 32.3353 80.7776 31.9926 80.1046 31.9926C79.6767 31.9926 79.3098 32.1341 79.0048 32.4164C78.7005 32.6992 78.5471 33.0298 78.5471 33.4063C78.5471 33.7392 78.6735 34.0554 78.9244 34.3578C79.176 34.6648 79.7043 35.027 80.5089 35.4415C81.4892 35.9491 82.1565 36.4389 82.5086 36.9103C82.8537 37.3875 83.0266 37.9239 83.0266 38.5212C83.0266 39.3623 82.7314 40.0757 82.1404 40.6593C81.5501 41.2434 80.8121 41.5348 79.9266 41.5348C79.335 41.5348 78.7711 41.4066 78.2347 41.1485C77.6972 40.8921 77.2527 40.5368 76.9006 40.0844L77.7288 39.1427C78.4012 39.9027 79.1157 40.2827 79.8703 40.2827C80.398 40.2827 80.8477 40.1131 81.2187 39.7739C81.5897 39.4353 81.7752 39.0358 81.7752 38.5776C81.7752 38.201 81.6523 37.8647 81.4076 37.5692C81.1624 37.28 80.6088 36.9167 79.7474 36.4763C78.8234 35.9997 78.1945 35.5283 77.8614 35.0643C77.5289 34.5992 77.3618 34.0686 77.3618 33.4724C77.3618 32.6935 77.6271 32.0461 78.1583 31.531C78.689 31.0165 79.3597 30.7589 80.1712 30.7589C81.1136 30.7589 82.0618 31.2211 83.0168 32.1433Z" fill="#24242E"/>
<path d="M86.4993 27.2169H87.8168V31.0228H89.9054V32.1628H87.8168V41.2715H86.4993V32.1628H84.7024V31.0228H86.4993V27.2169Z" fill="#24242E"/>
<path d="M97.0295 32.1433L96.183 33.0194C95.4784 32.3353 94.7892 31.9926 94.1161 31.9926C93.6883 31.9926 93.3225 32.1341 93.0169 32.4164C92.7126 32.6992 92.5598 33.0298 92.5598 33.4063C92.5598 33.7392 92.6856 34.0554 92.9371 34.3578C93.1887 34.6648 93.7164 35.027 94.5204 35.4415C95.5019 35.9491 96.1686 36.4389 96.5201 36.9103C96.8658 37.3875 97.0393 37.9239 97.0393 38.5212C97.0393 39.3623 96.7435 40.0757 96.1531 40.6593C95.5628 41.2434 94.8237 41.5348 93.9387 41.5348C93.3477 41.5348 92.7844 41.4066 92.2468 41.1485C91.7093 40.8921 91.2648 40.5368 90.9133 40.0844L91.7415 39.1427C92.4134 39.9027 93.1272 40.2827 93.8818 40.2827C94.4108 40.2827 94.8598 40.1131 95.2303 39.7739C95.6018 39.4353 95.7879 39.0358 95.7879 38.5776C95.7879 38.201 95.665 37.8647 95.4198 37.5692C95.1751 37.28 94.6215 36.9167 93.7601 36.4763C92.8361 35.9997 92.2072 35.5283 91.8735 35.0643C91.5416 34.5992 91.3739 34.0686 91.3739 33.4724C91.3739 32.6935 91.6392 32.0461 92.1704 31.531C92.7017 31.0165 93.3724 30.7589 94.1833 30.7589C95.1257 30.7589 96.0745 31.2211 97.0295 32.1433Z" fill="#24242E"/>
<path d="M100.511 27.2169H101.829V31.0228H103.917V32.1628H101.829V41.2715H100.511V32.1628H98.7139V31.0228H100.511V27.2169Z" fill="#24242E"/>
<path d="M110.257 30.7589C111.834 30.7589 113.143 31.3304 114.179 32.4738C115.121 33.5156 115.593 34.7499 115.593 36.1756C115.593 37.6071 115.095 38.8587 114.099 39.9291C113.103 40.9996 111.822 41.5354 110.257 41.5354C108.687 41.5354 107.403 40.9996 106.407 39.9291C105.411 38.8587 104.913 37.6071 104.913 36.1756C104.913 34.7562 105.384 33.5248 106.327 32.4825C107.363 31.3338 108.674 30.7589 110.257 30.7589ZM110.253 32.0496C109.158 32.0496 108.216 32.4543 107.429 33.2649C106.642 34.0749 106.249 35.0546 106.249 36.2038C106.249 36.9443 106.428 37.6359 106.788 38.2763C107.146 38.9162 107.631 39.4112 108.241 39.7596C108.852 40.1085 109.522 40.2827 110.253 40.2827C110.983 40.2827 111.654 40.1085 112.265 39.7596C112.876 39.4112 113.36 38.9162 113.718 38.2763C114.078 37.6359 114.257 36.9443 114.257 36.2038C114.257 35.0546 113.862 34.0749 113.072 33.2649C112.282 32.4543 111.342 32.0496 110.253 32.0496Z" fill="#24242E"/>
<path d="M121.764 27.0657V28.3563C121.281 28.1488 120.866 28.0459 120.522 28.0459C120.265 28.0459 120.052 28.097 119.882 28.2011C119.713 28.304 119.606 28.4236 119.563 28.5587C119.519 28.6938 119.496 29.0531 119.496 29.6378L119.495 31.0221H121.633V32.1622H119.494L119.487 41.2709H118.17V32.1627H116.823V31.0227H118.17V29.421C118.17 28.6863 118.237 28.162 118.372 27.8481C118.507 27.5342 118.735 27.2818 119.059 27.0898C119.383 26.8984 119.772 26.8024 120.231 26.8024C120.657 26.8018 121.168 26.8903 121.764 27.0657Z" fill="#24242E"/>
<path d="M127.622 27.0657V28.3563C127.139 28.1488 126.725 28.0459 126.38 28.0459C126.122 28.0459 125.909 28.097 125.74 28.2011C125.571 28.304 125.464 28.4236 125.421 28.5587C125.376 28.6938 125.354 29.0531 125.354 29.6378L125.353 31.0221H127.49V32.1622H125.352L125.345 41.2709H124.027V32.1627H122.681V31.0227H124.027V29.421C124.027 28.6863 124.095 28.162 124.229 27.8481C124.365 27.5342 124.593 27.2818 124.917 27.0898C125.24 26.8984 125.63 26.8024 126.088 26.8024C126.515 26.8018 127.026 26.8903 127.622 27.0657Z" fill="#24242E"/>
<path d="M137.595 37.8704L138.705 38.4551C138.34 39.1709 137.92 39.7481 137.443 40.1884C136.965 40.6277 136.429 40.9622 135.832 41.1911C135.236 41.4204 134.561 41.5354 133.807 41.5354C132.137 41.5354 130.831 40.9881 129.889 39.8912C128.947 38.7954 128.477 37.5565 128.477 36.175C128.477 34.8758 128.874 33.7162 129.672 32.6992C130.683 31.4057 132.036 30.7589 133.732 30.7589C135.477 30.7589 136.871 31.4212 137.914 32.7463C138.654 33.6817 139.031 34.8499 139.043 36.2504H129.831C129.857 37.441 130.237 38.4172 130.971 39.1783C131.707 39.9401 132.614 40.3201 133.694 40.3201C134.215 40.3201 134.723 40.2298 135.216 40.0476C135.709 39.8665 136.128 39.6256 136.474 39.3255C136.819 39.0248 137.193 38.5402 137.595 37.8704ZM137.595 35.1109C137.419 34.4078 137.162 33.8456 136.826 33.4241C136.49 33.0033 136.047 32.6653 135.493 32.4072C134.94 32.1496 134.36 32.0214 133.751 32.0214C132.745 32.0214 131.881 32.3445 131.159 32.9918C130.632 33.4621 130.234 34.1686 129.963 35.1109H137.595Z" fill="#24242E"/>
<path d="M53.5995 8.16528L51.5344 10.2361C50.6959 9.40419 49.935 8.98796 49.2504 8.98796C48.876 8.98796 48.5825 9.06787 48.3706 9.22712C48.1587 9.38694 48.0536 9.58528 48.0536 9.82157C48.0536 10.0015 48.1208 10.1665 48.2546 10.3177C48.3896 10.4695 48.7215 10.6753 49.2522 10.9369L50.4754 11.5497C51.7635 12.1861 52.6485 12.8363 53.1298 13.4975C53.611 14.1598 53.8516 14.9353 53.8516 15.8258C53.8516 17.0107 53.4169 17.9984 52.5474 18.7917C51.678 19.5839 50.5127 19.9801 49.0512 19.9801C47.1078 19.9801 45.5566 19.2195 44.3977 17.6971L46.4537 15.4516C46.8447 15.908 47.3042 16.2771 47.8308 16.5588C48.3568 16.8394 48.8237 16.9796 49.2321 16.9796C49.6725 16.9796 50.0269 16.8739 50.2962 16.6617C50.5656 16.4496 50.7005 16.2041 50.7005 15.9264C50.7005 15.4125 50.2147 14.9106 49.2441 14.4208L48.1185 13.8574C45.9644 12.772 44.8881 11.4129 44.8881 9.78017C44.8881 8.72696 45.2936 7.82724 46.1056 7.07987C46.9171 6.3325 47.9548 5.95996 49.2189 5.95996C50.0837 5.95996 50.8981 6.15025 51.6602 6.52969C52.4228 6.90912 53.0695 7.4547 53.5995 8.16528Z" fill="#24242E"/>
<path d="M56.645 1.37451H59.9919V6.29623H61.9807V9.18453H59.9919V19.6437H56.645V9.18453H54.9221V6.29623H56.645V1.37451Z" fill="#24242E"/>
<path d="M77.1126 13.9373H66.3683C66.5239 14.8841 66.938 15.6378 67.6116 16.1972C68.2858 16.756 69.145 17.036 70.1902 17.036C71.4398 17.036 72.5126 16.5991 73.4113 15.7258L76.2288 17.0498C75.5259 18.0472 74.6845 18.7854 73.7054 19.2632C72.7245 19.7409 71.5616 19.9801 70.2137 19.9801C68.1227 19.9801 66.4205 19.3206 65.1054 18.0012C63.7909 16.6813 63.1333 15.029 63.1333 13.0439C63.1333 11.0093 63.7886 9.32083 65.0991 7.97614C66.4113 6.63202 68.055 5.95996 70.0317 5.95996C72.1301 5.95996 73.8375 6.63202 75.152 7.97614C76.4671 9.3191 77.1253 11.0944 77.1253 13.3009L77.1126 13.9373ZM73.764 11.3008C73.5429 10.5586 73.1087 9.95437 72.4586 9.48927C71.8091 9.02418 71.0556 8.79134 70.1982 8.79134C69.2667 8.79134 68.4506 9.05235 67.7483 9.57493C67.3072 9.90148 66.8989 10.477 66.5228 11.3008H73.764Z" fill="#24242E"/>
<path d="M79.2019 6.29628H82.5489V7.66971C83.3069 7.02928 83.9943 6.58545 84.6094 6.33537C85.225 6.08529 85.8545 5.95996 86.4988 5.95996C87.8185 5.95996 88.9395 6.42218 89.8607 7.34547C90.6354 8.13078 91.0231 9.29036 91.0231 10.8276V19.6437H87.7175V13.8039C87.7175 12.2126 87.6457 11.1559 87.5032 10.6339C87.3614 10.1113 87.1122 9.71406 86.7578 9.44041C86.4041 9.16675 85.9659 9.02993 85.4444 9.02993C84.7685 9.02993 84.1879 9.25701 83.7038 9.70946C83.2185 10.1631 82.8831 10.7885 82.6959 11.5888C82.5982 12.005 82.5489 12.9071 82.5489 14.2937V19.6437H79.2019V6.29628Z" fill="#24242E"/>
<path d="M103.468 1.1366H106.815V19.6438H103.468V18.2278C102.815 18.8481 102.161 19.2954 101.504 19.569C100.847 19.8433 100.136 19.9801 99.3692 19.9801C97.648 19.9801 96.1595 19.3126 94.903 17.976C93.6476 16.6405 93.0193 14.9802 93.0193 12.9939C93.0193 10.9352 93.6275 9.24844 94.8426 7.93364C96.0578 6.6177 97.5338 5.95943 99.2716 5.95943C100.07 5.95943 100.821 6.11178 101.523 6.41476C102.223 6.71773 102.873 7.17305 103.468 7.77957V1.1366ZM99.9567 9.05815C98.923 9.05815 98.0633 9.42321 97.3787 10.1528C96.6953 10.8823 96.353 11.8182 96.353 12.9594C96.353 14.1086 96.701 15.0555 97.3971 15.7966C98.0937 16.5387 98.9511 16.9096 99.9687 16.9096C101.019 16.9096 101.891 16.5451 102.584 15.8155C103.276 15.0854 103.622 14.1293 103.622 12.9473C103.622 11.7895 103.276 10.8518 102.584 10.1344C101.891 9.41689 101.016 9.05815 99.9567 9.05815Z" fill="#24242E"/>
<path d="M115.835 5.95935C117.094 5.95935 118.278 6.27382 119.385 6.90334C120.493 7.53228 121.357 8.38543 121.979 9.46452C122.6 10.543 122.911 11.7072 122.911 12.957C122.911 14.2155 122.597 15.3917 121.973 16.4869C121.347 17.5815 120.495 18.4376 119.415 19.0544C118.336 19.6713 117.147 19.98 115.848 19.98C113.934 19.98 112.302 19.2999 110.948 17.9397C109.595 16.5789 108.919 14.9261 108.919 12.9818C108.919 10.8983 109.683 9.16212 111.212 7.77316C112.553 6.56415 114.094 5.95935 115.835 5.95935ZM115.888 9.11383C114.847 9.11383 113.982 9.47487 113.29 10.1981C112.598 10.9213 112.253 11.8452 112.253 12.9726C112.253 14.1316 112.593 15.0704 113.278 15.7896C113.961 16.5082 114.827 16.8675 115.876 16.8675C116.923 16.8675 117.795 16.5042 118.491 15.7769C119.187 15.0502 119.536 14.116 119.536 12.9726C119.536 11.8291 119.193 10.9006 118.51 10.186C117.826 9.47142 116.952 9.11383 115.888 9.11383Z" fill="#24242E"/>
<path d="M124.859 6.29628H127.73V7.98016C128.04 7.31903 128.453 6.81714 128.967 6.47392C129.481 6.13186 130.044 5.95996 130.657 5.95996C131.089 5.95996 131.542 6.07494 132.016 6.30318L130.974 9.18458C130.581 8.98796 130.258 8.88965 130.006 8.88965C129.49 8.88965 129.055 9.20872 128.7 9.84629C128.344 10.4839 128.167 11.7348 128.167 13.5981L128.178 14.2483V19.6437H124.859V6.29628Z" fill="#24242E"/>
<path d="M132.576 6.29622H133.766C133.774 4.5468 133.803 3.5114 133.852 3.19233C133.942 2.45646 134.251 1.87351 134.78 1.44463C135.308 1.01461 136.056 0.800171 137.022 0.800171C137.72 0.800171 138.505 0.959418 139.382 1.27791V3.82702C138.897 3.6879 138.499 3.61833 138.187 3.61833C137.793 3.61833 137.505 3.70054 137.324 3.86382C137.194 3.98684 137.127 4.24095 137.127 4.62556L137.115 6.29622H139.243V9.12875H137.114V19.6437H133.766V9.12875H132.576V6.29622Z" fill="#24242E"/>
<path d="M24.483 26.4534L41.1983 43.2003V27.6527C38.9901 28.5875 36.5626 29.1043 34.0139 29.1055C30.5257 29.1049 27.2649 28.1356 24.483 26.4534ZM17.4044 2.54333H0.61792L18.1929 20.1514C16.5171 17.3689 15.5511 14.1086 15.5506 10.6213C15.5511 7.72491 16.2179 4.98436 17.4044 2.54333Z" fill="#24242E"/>
<path d="M19.2369 10.6213C19.2426 7.63868 20.1287 4.86478 21.6466 2.54333H19.2845C17.9694 4.94124 17.2205 7.69329 17.22 10.6213C17.2211 19.9059 24.7386 27.4325 34.0133 27.4336C36.5844 27.4331 39.02 26.8524 41.1977 25.8176V23.5381C39.0716 24.7276 36.6229 25.4088 34.0133 25.4134C25.8521 25.3991 19.2512 18.7894 19.2369 10.6213ZM34.0133 21.7571C27.8696 21.7467 22.8997 16.771 22.8888 10.6218C22.8945 7.43861 24.2315 4.57158 26.3695 2.54333H23.6457C21.9096 4.77395 20.8724 7.57544 20.8719 10.6218C20.873 17.8869 26.7549 23.7761 34.0133 23.7767C36.6659 23.7761 39.1331 22.9868 41.1977 21.6346V19.1125C39.26 20.7573 36.755 21.7525 34.0133 21.7571Z" fill="#24242E"/>
</svg>

<svg width="140" height="44" fill="none" xmlns="http://www.w3.org/2000/svg"><path d="M34.014 1.15c-5.225 0-9.462 4.24-9.462 9.472 0 5.23 4.237 9.47 9.462 9.47s9.461-4.24 9.461-9.47c0-5.231-4.236-9.472-9.461-9.472zm0 15.578a6.103 6.103 0 0 1-6.1-6.106 6.103 6.103 0 0 1 6.1-6.106c3.369 0 6.1 2.734 6.1 6.106a6.103 6.103 0 0 1-6.1 6.106zM139.205 23.067H44.697v.636h94.508v-.636zM44.677 27.415h1.411v5.2l5.533-5.2h1.86l-6.648 6.217 7.164 7.64h-1.842l-6.067-6.454v6.454h-1.41V27.415zM54.714 31.022h1.318v4.786c0 1.168.062 1.972.187 2.411.19.628.549 1.124 1.08 1.488.53.365 1.163.547 1.9.547.734 0 1.357-.178 1.87-.532.511-.355.864-.821 1.06-1.4.132-.394.198-1.233.198-2.514v-4.786h1.345v5.03c0 1.414-.164 2.478-.494 3.194a3.764 3.764 0 0 1-1.487 1.681c-.66.406-1.491.608-2.488.608-.998 0-1.83-.202-2.499-.608a3.74 3.74 0 0 1-1.495-1.695c-.33-.725-.495-1.817-.495-3.274v-4.936zM66.117 31.022h1.318v1.837c.526-.703 1.11-1.229 1.75-1.578a4.297 4.297 0 0 1 2.089-.523c.765 0 1.444.195 2.037.585.593.39 1.03.913 1.313 1.573.282.659.423 1.686.423 3.08v5.276H73.73v-4.89c0-1.18-.05-1.968-.147-2.364-.152-.678-.445-1.188-.878-1.53-.433-.343-.998-.514-1.694-.514-.797 0-1.511.264-2.141.791a3.706 3.706 0 0 0-1.248 1.96c-.125.508-.187 1.438-.187 2.788v3.759h-1.318v-10.25zM83.017 32.143l-.847.876c-.704-.684-1.392-1.026-2.065-1.026-.428 0-.795.141-1.1.423-.304.283-.458.614-.458.99 0 .333.127.65.377.952.252.307.78.669 1.585 1.084.98.507 1.647.997 2 1.468.345.478.518 1.014.518 1.611 0 .841-.296 1.555-.887 2.138-.59.584-1.328.876-2.213.876a3.853 3.853 0 0 1-1.692-.386 3.66 3.66 0 0 1-1.334-1.065l.828-.941c.672.76 1.387 1.14 2.141 1.14.528 0 .978-.17 1.349-.51.37-.338.556-.737.556-1.195 0-.377-.123-.713-.367-1.009-.246-.289-.8-.652-1.66-1.093-.925-.476-1.553-.948-1.887-1.412a2.67 2.67 0 0 1-.5-1.592c0-.779.266-1.426.797-1.941.531-.514 1.202-.772 2.013-.772.943 0 1.89.462 2.846 1.384zM86.5 27.217h1.317v3.806h2.088v1.14h-2.088v9.109h-1.318v-9.11h-1.797v-1.14H86.5v-3.805zM97.03 32.143l-.847.876c-.705-.684-1.394-1.026-2.067-1.026-.428 0-.793.141-1.1.423-.303.283-.456.614-.456.99 0 .333.126.65.377.952.252.307.78.669 1.583 1.084.982.507 1.649.997 2 1.468.346.478.52 1.014.52 1.611 0 .841-.297 1.555-.887 2.138-.59.584-1.33.876-2.214.876a3.86 3.86 0 0 1-1.692-.386 3.654 3.654 0 0 1-1.334-1.065l.829-.941c.671.76 1.385 1.14 2.14 1.14.529 0 .978-.17 1.348-.51.372-.338.558-.737.558-1.195 0-.377-.123-.713-.368-1.009-.245-.289-.799-.652-1.66-1.093-.924-.476-1.553-.948-1.886-1.412a2.673 2.673 0 0 1-.5-1.592c0-.779.265-1.426.796-1.941.532-.514 1.202-.772 2.013-.772.943 0 1.891.462 2.846 1.384zM100.511 27.217h1.318v3.806h2.088v1.14h-2.088v9.109h-1.318v-9.11h-1.797v-1.14h1.797v-3.805zM110.257 30.759c1.577 0 2.886.571 3.922 1.715.942 1.042 1.414 2.276 1.414 3.702 0 1.431-.498 2.683-1.494 3.753-.996 1.07-2.277 1.606-3.842 1.606-1.57 0-2.854-.535-3.85-1.606-.996-1.07-1.494-2.322-1.494-3.753 0-1.42.471-2.651 1.414-3.694 1.036-1.148 2.347-1.723 3.93-1.723zm-.004 1.29c-1.095 0-2.037.405-2.824 1.216-.787.81-1.18 1.79-1.18 2.939 0 .74.179 1.432.539 2.072.358.64.843 1.135 1.453 1.484a3.985 3.985 0 0 0 2.012.523c.73 0 1.401-.175 2.012-.523a3.807 3.807 0 0 0 1.453-1.484c.36-.64.539-1.332.539-2.072 0-1.15-.395-2.13-1.185-2.94s-1.73-1.214-2.819-1.214zM121.764 27.066v1.29c-.483-.207-.898-.31-1.242-.31-.257 0-.47.051-.64.155-.169.103-.276.223-.319.358-.044.135-.067.494-.067 1.079l-.001 1.384h2.138v1.14h-2.139l-.007 9.109h-1.317v-9.108h-1.347v-1.14h1.347V29.42c0-.735.067-1.259.202-1.573.135-.314.363-.566.687-.758.324-.192.713-.288 1.172-.288.426 0 .937.088 1.533.264zM127.622 27.066v1.29c-.483-.207-.897-.31-1.242-.31-.258 0-.471.051-.64.155-.169.103-.276.223-.319.358-.045.135-.067.494-.067 1.079l-.001 1.384h2.137v1.14h-2.138l-.007 9.109h-1.318v-9.108h-1.346v-1.14h1.346V29.42c0-.735.068-1.259.202-1.573a1.62 1.62 0 0 1 .688-.758c.323-.192.713-.288 1.171-.288.427 0 .938.088 1.534.264zM137.595 37.87l1.11.585c-.365.716-.785 1.293-1.262 1.733a5.015 5.015 0 0 1-1.611 1.003c-.596.23-1.271.344-2.025.344-1.67 0-2.976-.547-3.918-1.644-.942-1.096-1.412-2.334-1.412-3.716 0-1.3.397-2.459 1.195-3.476 1.011-1.293 2.364-1.94 4.06-1.94 1.745 0 3.139.662 4.182 1.987.74.936 1.117 2.104 1.129 3.504h-9.212c.026 1.191.406 2.167 1.14 2.928.736.762 1.643 1.142 2.723 1.142.521 0 1.029-.09 1.522-.272a4.004 4.004 0 0 0 1.258-.723c.345-.3.719-.785 1.121-1.455zm0-2.76c-.176-.702-.433-1.264-.769-1.686-.336-.42-.779-.759-1.333-1.017a4.075 4.075 0 0 0-1.742-.386c-1.006 0-1.87.323-2.592.97-.527.471-.925 1.178-1.196 2.12h7.632zM53.6 8.165l-2.066 2.071c-.838-.832-1.599-1.248-2.284-1.248-.374 0-.667.08-.88.24-.211.159-.316.357-.316.594 0 .18.067.345.2.496.136.152.468.357.998.619l1.223.613c1.288.636 2.173 1.286 2.655 1.947.481.663.722 1.438.722 2.329 0 1.185-.435 2.172-1.305 2.966-.869.792-2.034 1.188-3.496 1.188-1.943 0-3.494-.76-4.653-2.283l2.056-2.245c.39.456.85.825 1.377 1.107.526.28.993.42 1.401.42.44 0 .795-.105 1.064-.317.27-.212.404-.458.404-.736 0-.514-.485-1.015-1.456-1.505l-1.126-.564c-2.154-1.085-3.23-2.444-3.23-4.077 0-1.053.406-1.953 1.218-2.7.811-.748 1.849-1.12 3.113-1.12a5.406 5.406 0 0 1 4.38 2.205zM56.645 1.375h3.347v4.921h1.989v2.889h-1.99v10.459h-3.346V9.184h-1.723V6.297h1.723V1.375zM77.113 13.937H66.368c.156.947.57 1.7 1.244 2.26.674.559 1.533.839 2.578.839 1.25 0 2.323-.437 3.221-1.31l2.818 1.324c-.703.997-1.544 1.735-2.524 2.213s-2.143.717-3.491.717c-2.091 0-3.793-.66-5.109-1.979-1.314-1.32-1.972-2.972-1.972-4.957 0-2.035.656-3.723 1.966-5.068 1.312-1.344 2.956-2.016 4.933-2.016 2.098 0 3.806.672 5.12 2.016 1.315 1.343 1.973 3.118 1.973 5.325l-.012.636zm-3.349-2.636a3.354 3.354 0 0 0-1.305-1.812c-.65-.465-1.403-.698-2.26-.698-.932 0-1.748.261-2.45.784-.442.326-.85.902-1.226 1.726h7.241zM79.202 6.296h3.347V7.67c.758-.64 1.445-1.085 2.06-1.335a4.977 4.977 0 0 1 1.89-.375c1.32 0 2.44.462 3.362 1.385.774.786 1.162 1.945 1.162 3.483v8.816h-3.305v-5.84c0-1.591-.072-2.648-.215-3.17-.142-.523-.39-.92-.745-1.194-.354-.273-.792-.41-1.314-.41-.675 0-1.256.227-1.74.68-.485.453-.82 1.079-1.008 1.879-.098.416-.147 1.318-.147 2.705v5.35h-3.347V6.296zM103.468 1.137h3.347v18.507h-3.347v-1.416c-.653.62-1.307 1.067-1.964 1.341a5.483 5.483 0 0 1-2.135.411c-1.721 0-3.21-.667-4.466-2.004-1.255-1.335-1.884-2.996-1.884-4.982 0-2.059.608-3.746 1.824-5.06 1.215-1.316 2.69-1.975 4.429-1.975.798 0 1.549.153 2.251.456.7.303 1.35.758 1.945 1.365V1.137zm-3.511 7.921c-1.034 0-1.894.365-2.578 1.095-.684.73-1.026 1.665-1.026 2.806 0 1.15.348 2.097 1.044 2.838.697.742 1.554 1.113 2.572 1.113 1.05 0 1.922-.365 2.615-1.095.692-.73 1.038-1.686 1.038-2.868 0-1.157-.346-2.095-1.038-2.813-.693-.717-1.568-1.076-2.627-1.076zM115.835 5.96c1.259 0 2.443.314 3.55.943a6.817 6.817 0 0 1 2.594 2.562 6.882 6.882 0 0 1 .932 3.492 7.015 7.015 0 0 1-.938 3.53 6.77 6.77 0 0 1-2.558 2.567c-1.079.617-2.268.926-3.567.926-1.914 0-3.546-.68-4.9-2.04-1.353-1.361-2.029-3.014-2.029-4.958 0-2.084.764-3.82 2.293-5.209 1.341-1.209 2.882-1.814 4.623-1.814zm.053 3.154c-1.041 0-1.906.36-2.598 1.084-.692.723-1.037 1.647-1.037 2.775 0 1.159.34 2.097 1.025 2.817.683.718 1.549 1.078 2.598 1.078 1.047 0 1.919-.364 2.615-1.091.696-.727 1.045-1.661 1.045-2.804 0-1.144-.343-2.072-1.026-2.787-.684-.715-1.558-1.072-2.622-1.072zM124.859 6.296h2.871V7.98c.31-.661.723-1.163 1.237-1.506a2.988 2.988 0 0 1 1.69-.514c.432 0 .885.115 1.359.343l-1.042 2.882c-.393-.197-.716-.295-.968-.295-.516 0-.951.319-1.306.956-.356.638-.533 1.889-.533 3.752l.011.65v5.396h-3.319V6.296zM132.576 6.296h1.19c.008-1.75.037-2.785.086-3.104.09-.736.399-1.318.928-1.747.528-.43 1.276-.645 2.242-.645.698 0 1.483.16 2.36.478v2.549c-.485-.14-.883-.209-1.195-.209-.394 0-.682.083-.863.246-.13.123-.197.377-.197.762l-.012 1.67h2.128V9.13h-2.129v10.515h-3.348V9.129h-1.19V6.296zM24.483 26.453 41.198 43.2V27.653a18.407 18.407 0 0 1-7.184 1.453c-3.488-.001-6.75-.97-9.531-2.653zm-7.079-23.91H.618l17.575 17.608a18.417 18.417 0 0 1-2.642-9.53c0-2.896.667-5.637 1.853-8.078z" fill="#24242E"/><path d="M19.237 10.621a14.763 14.763 0 0 1 2.41-8.078h-2.362a16.752 16.752 0 0 0-2.065 8.078c.001 9.285 7.519 16.811 16.793 16.813 2.571 0 5.007-.582 7.185-1.616v-2.28a14.72 14.72 0 0 1-7.185 1.875c-8.16-.014-14.762-6.624-14.776-14.792zm14.776 11.136c-6.143-.01-11.113-4.986-11.124-11.135a11.128 11.128 0 0 1 3.48-8.079h-2.723a13.11 13.11 0 0 0-2.774 8.079c.001 7.265 5.883 13.154 13.141 13.155 2.653 0 5.12-.79 7.185-2.142v-2.523a11.09 11.09 0 0 1-7.185 2.645z" fill="#24242E"/></svg>
